Origami/16x16/apps/ocrfeeder.svg

<svg width="16" height="16" version="1" xmlns="http://www.w3.org/2000/svg">
 <path d="m7 0c-3.8423039 1.5369215e-7 -6.9999998 3.1576961-7 7 1.5369215e-7 3.842304 3.1576961 7 7 7h0.0039c0.797734-0.0013 1.568283-0.177376 2.3125-0.441406l1.533203 1.533203c0.584189 0.608468 1.489216 0.978967 2.302735 0.9375 0.813519-0.04147 1.488818-0.397022 1.984375-0.892578 0.495556-0.495557 0.851111-1.170856 0.892578-1.984375 0.04147-0.813519-0.329032-1.718546-0.9375-2.302735l-1.533197-1.5332028c0.26403-0.744217 0.440131-1.514766 0.441406-2.3125v-0.0039062c0-3.8423039-3.157696-6.9999998-7-7z" style="fill:#4f4f4f"/>
 <path d="m9.9902344 8.9902344a1.0001 1.0001 0 0 0 -0.6972656 1.7167966l3.0000002 3a1.0001 1.0001 0 1 0 1.414062 -1.414062l-3-3.0000002a1.0001 1.0001 0 0 0 -0.7167966 -0.3027344z" style="fill:#a27f41"/>
 <path d="m7 2a5.0000002 5.0000002 0 0 0 -5 5 5.0000002 5.0000002 0 0 0 5 5 5.0000002 5.0000002 0 0 0 5 -5 5.0000002 5.0000002 0 0 0 -5 -5z" style="fill:#62aeff"/>
 <path d="m5 4v1 2 1 2h1v-2h2v2h1v-6h-3-1zm1 1h2v2h-2v-2z" style="fill:#ffffff"/>
</svg>

<svg xmlns="http://www.w3.org/2000/svg" width="16" height="16" version="1">
 <path style="fill:#4f4f4f" d="M 7,0 C 3.1576961,1.5369215e-7 1.5369215e-7,3.1576961 0,7 c 1.5369215e-7,3.842304 3.1576961,7 7,7 H 7.00195 7.0039 c 0.797734,-0.0013 1.568283,-0.177376 2.3125,-0.441406 l 1.533203,1.533203 c 0.584189,0.608468 1.489216,0.978967 2.302735,0.9375 0.813519,-0.04147 1.488818,-0.397022 1.984375,-0.892578 0.495556,-0.495557 0.851111,-1.170856 0.892578,-1.984375 0.04147,-0.813519 -0.329032,-1.718546 -0.9375,-2.302735 L 13.558594,9.3164062 C 13.822624,8.5721892 13.998725,7.8016402 14,7.0039062 V 7.0019531 7 C 14,3.1576961 10.842304,1.5369214e-7 7,0 Z"/>
 <path style="fill:#a27f41" d="M 9.9902344,8.9902344 A 1.0001,1.0001 0 0 0 9.2929688,10.707031 l 3.0000002,3 a 1.0001,1.0001 0 1 0 1.414062,-1.414062 l -3,-3.0000002 A 1.0001,1.0001 0 0 0 9.9902344,8.9902344 Z"/>
 <path style="fill:#62aeff" d="M 7 2 A 5.0000002 5.0000002 0 0 0 2 7 A 5.0000002 5.0000002 0 0 0 7 12 A 5.0000002 5.0000002 0 0 0 12 7 A 5.0000002 5.0000002 0 0 0 7 2 z"/>
 <path style="fill:#ffffff" d="M 5 4 L 5 5 L 5 7 L 5 8 L 5 10 L 6 10 L 6 8 L 8 8 L 8 10 L 9 10 L 9 4 L 6 4 L 5 4 z M 6 5 L 8 5 L 8 7 L 6 7 L 6 5 z"/>
</svg>
